Origami/64x64/apps/openspades.svg

<svg width="64" height="64" version="1" xmlns="http://www.w3.org/2000/svg">
 <path d="m7 28v27.2c0 1.5512 1.2488 2.8 2.8 2.8h44.4c1.5512 0 2.8-1.2488 2.8-2.8v-27.2z" style="opacity:.2"/>
 <path d="m7 27v27.2c0 1.5512 1.2488 2.8 2.8 2.8h44.4c1.5512 0 2.8-1.2488 2.8-2.8v-27.2z" style="fill:#ffffbf"/>
 <path d="m57 27v-17.2c0-1.5512-1.2488-2.8-2.8-2.8h-44.4c-1.5512 0-2.8 1.2488-2.8 2.8v17.2z" style="fill:#6765f6"/>
 <rect x="17" y="28" width="10" height="10" style="opacity:.1"/>
 <rect x="17" y="27" width="10" height="10" style="fill:#3f3f3f"/>
 <rect x="37" y="28" width="10" height="10" style="opacity:.1"/>
 <rect x="37" y="27" width="10" height="10" style="fill:#3f3f3f"/>
 <path d="M 9.8007812 7 C 8.2495813 7 7 8.2495813 7 9.8007812 L 7 10.800781 C 7 9.2495815 8.2495813 8 9.8007812 8 L 54.199219 8 C 55.750419 8 57 9.2495814 57 10.800781 L 57 9.8007812 C 57 8.2495813 55.750419 7 54.199219 7 L 9.8007812 7 z" style="fill:#ffffff;opacity:.1"/>
</svg>

<svg xmlns="http://www.w3.org/2000/svg" width="64" height="64" version="1">
 <path style="opacity:0.2" d="M 7,28 7,55.2 C 7,56.7512 8.2488,58 9.8,58 l 44.4,0 C 55.7512,58 57,56.7512 57,55.2 L 57,28 Z"/>
 <path style="fill:#ffffbf" d="M 7,27 7,54.2 C 7,55.7512 8.2488,57 9.8,57 l 44.4,0 C 55.7512,57 57,55.7512 57,54.2 L 57,27 Z"/>
 <path style="fill:#6765f6" d="M 57,27 57,9.8 C 57,8.2488 55.7512,7 54.2,7 L 9.8,7 C 8.2488,7 7,8.2488 7,9.8 L 7,27 Z"/>
 <rect style="opacity:0.1" width="10" height="10" x="17" y="28"/>
 <rect style="fill:#3f3f3f" width="10" height="10" x="17" y="27"/>
 <rect style="opacity:0.1" width="10" height="10" x="37" y="28"/>
 <rect style="fill:#3f3f3f" width="10" height="10" x="37" y="27"/>
 <path style="opacity:0.1;fill:#ffffff" d="M 9.8007812 7 C 8.2495813 7 7 8.2495813 7 9.8007812 L 7 10.800781 C 7 9.2495815 8.2495813 8 9.8007812 8 L 54.199219 8 C 55.750419 8 57 9.2495814 57 10.800781 L 57 9.8007812 C 57 8.2495813 55.750419 7 54.199219 7 L 9.8007812 7 z"/>
</svg>
